svgs/duotone/face-party.svg

<svg xmlns="http://www.w3.org/2000/svg" viewBox="0 0 640 512"><!--! Font Awesome Pro 6.4.2 by @fontawesome - https://fontawesome.com License - https://fontawesome.com/license (Commercial License) Copyright 2023 Fonticons, Inc. --><path class="fa-primary" style="fill:var(--fa-primary-color,inherit);opacity:var(--fa-primary-opacity,1);" d="M51.3 152.2l-20-52C46.6 71.8 66 46 88.8 23.4L132 37.8C96.5 68.5 68.5 107.7 51.3 152.2zM55.1 12.2C40.9 27.6 28 44.4 16.6 62.1L1.1 21.7C-1.2 16 .2 9.4 4.4 4.9S15.2-1.1 21.1 .8L55.1 12.2zM204.8 233.6c-5.3 7.1-15.3 8.5-22.4 3.2s-8.5-15.3-3.2-22.4c30.4-40.5 91.2-40.5 121.6 0c5.3 7.1 3.9 17.1-3.2 22.4s-17.1 3.9-22.4-3.2c-17.6-23.5-52.8-23.5-70.4 0zm160 0c-5.3 7.1-15.3 8.5-22.4 3.2s-8.5-15.3-3.2-22.4c30.4-40.5 91.2-40.5 121.6 0c5.3 7.1 3.9 17.1-3.2 22.4s-17.1 3.9-22.4-3.2c-17.6-23.5-52.8-23.5-70.4 0zM512 256c0-26.5 21.5-48 48-48h32c26.5 0 48 21.5 48 48v64c0 26.5-21.5 48-48 48H400c-8.8 0-16-7.2-16-16s7.2-16 16-16H592c8.8 0 16-7.2 16-16V256c0-8.8-7.2-16-16-16H560c-8.8 0-16 7.2-16 16s7.2 16 16 16h16c8.8 0 16 7.2 16 16s-7.2 16-16 16H560c-26.5 0-48-21.5-48-48z"/><path class="fa-secondary" style="fill:var(--fa-secondary-color,inherit);opacity:var(--fa-secondary-opacity,.4);" d="M531.7 400C485.6 467.6 408 512 320 512C178.6 512 64 397.4 64 256S178.6 0 320 0C433.4 0 529.7 73.8 563.3 176H560c-44.2 0-80 35.8-80 80c0 18 6 34.6 16 48H416c-1 0-2 0-3 .1c-1.2-2.3-2.7-4.4-4.3-6.4c-4.3-5.2-10.1-9.7-16.7-13.4C378.7 276.9 361.4 272 344 272c-3.6 0-6.8 2.5-7.7 6s.6 7.2 3.8 9l0 0 0 0 0 0 .2 .1c.2 .1 .5 .3 .9 .5c.8 .5 2 1.2 3.4 2.1c2.8 1.9 6.5 4.5 10.2 7.6c3.7 3.1 7.2 6.6 9.6 10.1c2.5 3.5 3.5 6.4 3.5 8.6s-1 5-3.5 8.6c-2.5 3.5-5.9 6.9-9.6 10.1c-3.7 3.1-7.4 5.7-10.2 7.6c-1.4 .9-2.6 1.6-3.4 2.1c-.4 .2-.7 .4-.9 .5l-.2 .1 0 0 0 0 0 0 0 0 0 0c-2.5 1.4-4.1 4.1-4.1 7s1.6 5.6 4.1 7l0 0 0 0 0 0 .2 .1c.2 .1 .5 .3 .9 .5c.8 .5 2 1.2 3.4 2.1c2.8 1.9 6.5 4.5 10.2 7.6c3.7 3.1 7.2 6.6 9.6 10.1c2.5 3.5 3.5 6.4 3.5 8.6s-1 5-3.5 8.6c-2.5 3.5-5.9 6.9-9.6 10.1c-3.7 3.1-7.4 5.7-10.2 7.6c-1.4 .9-2.6 1.6-3.4 2.1c-.4 .2-.7 .4-.9 .5l-.2 .1 0 0 0 0 0 0 0 0c-3.2 1.8-4.7 5.5-3.8 9s4.1 6 7.7 6c17.4 0 34.7-4.9 47.9-12.3c6.6-3.7 12.5-8.2 16.7-13.4c1.6-2 3.1-4.1 4.3-6.4c1 .1 2 .1 3 .1H531.7zM275.2 233.6c5.3 7.1 15.3 8.5 22.4 3.2s8.5-15.3 3.2-22.4c-30.4-40.5-91.2-40.5-121.6 0c-5.3 7.1-3.9 17.1 3.2 22.4s17.1 3.9 22.4-3.2c17.6-23.5 52.8-23.5 70.4 0zm89.6 0c17.6-23.5 52.8-23.5 70.4 0c5.3 7.1 15.3 8.5 22.4 3.2s8.5-15.3 3.2-22.4c-30.4-40.5-91.2-40.5-121.6 0c-5.3 7.1-3.9 17.1 3.2 22.4s17.1 3.9 22.4-3.2z"/></svg>

<svg xmlns="http://www.w3.org/2000/svg" viewBox="0 0 640 512"><!--! Font Awesome Pro 6.1.1 by @fontawesome - https://fontawesome.com License - https://fontawesome.com/license (Commercial License) Copyright 2022 Fonticons, Inc. --><defs><style>.fa-secondary{opacity:.4}</style></defs><path class="fa-primary" d="M51.26 152.2L31.26 100.3C46.62 71.85 66.04 45.97 88.75 23.39L132 37.81C96.46 68.47 68.47 107.7 51.26 152.2zM55.14 12.18C40.89 27.64 27.99 44.36 16.6 62.14L1.067 21.74C-1.156 15.97 .1552 9.423 4.433 4.947C8.71 .4702 15.19-1.136 21.06 .8215L55.14 12.18zM182.4 236.8C175.3 231.5 173.9 221.5 179.2 214.4C209.6 173.9 270.4 173.9 300.8 214.4C306.1 221.5 304.7 231.5 297.6 236.8C290.5 242.1 280.5 240.7 275.2 233.6C257.6 210.1 222.4 210.1 204.8 233.6C199.5 240.7 189.5 242.1 182.4 236.8V236.8zM342.4 236.8C335.3 231.5 333.9 221.5 339.2 214.4C369.6 173.9 430.4 173.9 460.8 214.4C466.1 221.5 464.7 231.5 457.6 236.8C450.5 242.1 440.5 240.7 435.2 233.6C417.6 210.1 382.4 210.1 364.8 233.6C359.5 240.7 349.5 242.1 342.4 236.8zM512 255.1C512 229.5 533.5 207.1 560 207.1H592C618.5 207.1 640 229.5 640 255.1V319.1C640 346.5 618.5 368 592 368H400C391.2 368 384 360.8 384 352C384 343.2 391.2 336 400 336H592C600.8 336 608 328.8 608 319.1V255.1C608 247.2 600.8 239.1 592 239.1H560C551.2 239.1 544 247.2 544 255.1C544 264.8 551.2 271.1 560 271.1H576C584.8 271.1 592 279.2 592 287.1C592 296.8 584.8 303.1 576 303.1H560C533.5 303.1 512 282.5 512 255.1z"/><path class="fa-secondary" d="M531.7 400C485.6 467.6 407.1 512 320 512C178.6 512 64 397.4 64 256C64 114.6 178.6 0 320 0C433.4 0 529.7 73.79 563.3 176H560C515.8 176 480 211.8 480 256C480 274 485.1 290.6 495.1 304H416C414.1 304 413.1 304 412.1 304.1C411.8 301.8 410.3 299.7 408.7 297.7C404.4 292.5 398.5 287.1 391.9 284.3C378.7 276.9 361.4 272 344 272C340.4 272 337.2 274.5 336.3 277.1C335.3 281.5 336.9 285.2 340.1 286.1L340.1 286.1L340.3 287.1C340.5 287.2 340.8 287.4 341.2 287.7C342 288.1 343.2 288.9 344.6 289.8C347.4 291.6 351.2 294.3 354.8 297.4C358.6 300.5 362 303.1 364.5 307.4C366.1 310.1 368 313.8 368 315.1C368 318.2 366.1 321 364.5 324.6C362 328 358.6 331.5 354.8 334.6C351.2 337.7 347.4 340.4 344.6 342.2C343.2 343.1 342 343.9 341.2 344.3C340.8 344.6 340.5 344.8 340.3 344.9L340.1 345L340.1 345C337.6 346.4 336 349.1 336 352C336 354.9 337.6 357.6 340.1 358.1L340.1 358.1L340.3 359.1C340.5 359.2 340.8 359.4 341.2 359.7C342 360.1 343.2 360.9 344.6 361.8C347.4 363.6 351.2 366.3 354.8 369.4C358.6 372.5 362 375.9 364.5 379.4C366.1 382.1 368 385.8 368 388C368 390.2 366.1 393 364.5 396.6C362 400 358.6 403.5 354.8 406.6C351.2 409.7 347.4 412.4 344.6 414.2C343.2 415.1 342 415.9 341.2 416.3C340.8 416.6 340.5 416.8 340.3 416.9L340.1 417L340.1 417C336.9 418.8 335.3 422.5 336.3 426C337.2 429.5 340.4 431.1 344 431.1C361.4 431.1 378.7 427.1 391.9 419.7C398.5 416 404.4 411.5 408.7 406.3C410.3 404.3 411.8 402.2 412.1 399.9C413.1 399.1 414.1 399.1 416 399.1L531.7 400zM297.6 236.8C304.7 231.5 306.1 221.5 300.8 214.4C270.4 173.9 209.6 173.9 179.2 214.4C173.9 221.5 175.3 231.5 182.4 236.8C189.5 242.1 199.5 240.7 204.8 233.6C222.4 210.1 257.6 210.1 275.2 233.6C280.5 240.7 290.5 242.1 297.6 236.8zM364.8 233.6C382.4 210.1 417.6 210.1 435.2 233.6C440.5 240.7 450.5 242.1 457.6 236.8C464.7 231.5 466.1 221.5 460.8 214.4C430.4 173.9 369.6 173.9 339.2 214.4C333.9 221.5 335.3 231.5 342.4 236.8C349.5 242.1 359.5 240.7 364.8 233.6z"/></svg>
